images/content/semiregular-convex-uniform/heptagonal-dipyramid.svg

<?xml version="1.0" encoding="UTF-8"?>
<svg xmlns="http://www.w3.org/2000/svg" xmlns:xlink="http://www.w3.org/1999/xlink" width="113.56pt" height="199.88pt" viewBox="0 0 113.56 199.88" version="1.2">
<g id="surface1">
<path style=" stroke:none;fill-rule:nonzero;fill:rgb(64.0625%,38.792419%,52.146912%);fill-opacity:1;" d="M 61.320312 4.867188 L 83.621094 86.363281 L 50.585938 85.367188 "/>
<path style="fill:none;stroke-width:5;stroke-linecap:round;stroke-linejoin:round;stroke:rgb(0%,0%,0%);stroke-opacity:1;stroke-miterlimit:10;" d="M 615.579044 1953.21182 L 839.450924 1135.093232 L 507.81938 1145.092764 Z M 615.579044 1953.21182 " transform="matrix(0.099614,0,0,-0.099614,0,199.434498)"/>
<path style=" stroke:none;fill-rule:nonzero;fill:rgb(66.40625%,58.789062%,75.976562%);fill-opacity:1;" d="M 61.191406 174.039062 L 83.621094 86.363281 L 50.585938 85.367188 "/>
<path style="fill:none;stroke-width:5;stroke-linecap:round;stroke-linejoin:round;stroke:rgb(0%,0%,0%);stroke-opacity:1;stroke-miterlimit:10;" d="M 614.284987 254.93833 L 839.450924 1135.093232 L 507.81938 1145.092764 Z M 614.284987 254.93833 " transform="matrix(0.099614,0,0,-0.099614,0,199.434498)"/>
<path style=" stroke:none;fill-rule:nonzero;fill:rgb(86.521912%,55.271912%,45.410156%);fill-opacity:1;" d="M 61.320312 4.867188 L 50.585938 85.367188 L 24.160156 89.410156 "/>
<path style="fill:none;stroke-width:5;stroke-linecap:round;stroke-linejoin:round;stroke:rgb(0%,0%,0%);stroke-opacity:1;stroke-miterlimit:10;" d="M 615.579044 1953.21182 L 507.81938 1145.092764 L 242.537673 1104.506427 Z M 615.579044 1953.21182 " transform="matrix(0.099614,0,0,-0.099614,0,199.434498)"/>
<path style=" stroke:none;fill-rule:nonzero;fill:rgb(86.71875%,77.34375%,75.78125%);fill-opacity:1;" d="M 61.191406 174.039062 L 50.585938 85.367188 L 24.160156 89.410156 "/>
<path style="fill:none;stroke-width:5;stroke-linecap:round;stroke-linejoin:round;stroke:rgb(0%,0%,0%);stroke-opacity:1;stroke-miterlimit:10;" d="M 614.284987 254.93833 L 507.81938 1145.092764 L 242.537673 1104.506427 Z M 614.284987 254.93833 " transform="matrix(0.099614,0,0,-0.099614,0,199.434498)"/>
<path style=" stroke:none;fill-rule:nonzero;fill:rgb(18.992615%,2.600098%,34.692383%);fill-opacity:1;" d="M 61.320312 4.867188 L 102.433594 91.910156 L 83.621094 86.363281 "/>
<path style="fill:none;stroke-width:5;stroke-linecap:round;stroke-linejoin:round;stroke:rgb(0%,0%,0%);stroke-opacity:1;stroke-miterlimit:10;" d="M 615.579044 1953.21182 L 1028.304833 1079.409562 L 839.450924 1135.093232 Z M 615.579044 1953.21182 " transform="matrix(0.099614,0,0,-0.099614,0,199.434498)"/>
<path style=" stroke:none;fill-rule:nonzero;fill:rgb(29.588318%,34.202576%,74.021912%);fill-opacity:1;" d="M 61.191406 174.039062 L 102.433594 91.910156 L 83.621094 86.363281 "/>
<path style="fill:none;stroke-width:5;stroke-linecap:round;stroke-linejoin:round;stroke:rgb(0%,0%,0%);stroke-opacity:1;stroke-miterlimit:10;" d="M 614.284987 254.93833 L 1028.304833 1079.409562 L 839.450924 1135.093232 Z M 614.284987 254.93833 " transform="matrix(0.099614,0,0,-0.099614,0,199.434498)"/>
<path style=" stroke:none;fill-rule:nonzero;fill:rgb(88.28125%,47.900391%,3.900146%);fill-opacity:1;" d="M 61.191406 174.039062 L 102.433594 91.910156 L 90.800781 98.585938 "/>
<path style="fill:none;stroke-width:5;stroke-linecap:round;stroke-linejoin:round;stroke:rgb(0%,0%,0%);stroke-opacity:1;stroke-miterlimit:10;" d="M 614.284987 254.93833 L 1028.304833 1079.409562 L 911.525983 1012.39309 Z M 614.284987 254.93833 " transform="matrix(0.099614,0,0,-0.099614,0,199.434498)"/>
<path style=" stroke:none;fill-rule:nonzero;fill:rgb(76.171875%,46.09375%,47.509766%);fill-opacity:1;" d="M 61.191406 174.039062 L 53.757812 100.761719 L 90.800781 98.585938 "/>
<path style="fill:none;stroke-width:5;stroke-linecap:round;stroke-linejoin:round;stroke:rgb(0%,0%,0%);stroke-opacity:1;stroke-miterlimit:10;" d="M 614.284987 254.93833 L 539.661027 990.550974 L 911.525983 1012.39309 Z M 614.284987 254.93833 " transform="matrix(0.099614,0,0,-0.099614,0,199.434498)"/>
<path style=" stroke:none;fill-rule:nonzero;fill:rgb(80.076599%,87.889099%,44.604492%);fill-opacity:1;" d="M 61.191406 174.039062 L 24.160156 89.410156 L 23.472656 96.269531 "/>
<path style="fill:none;stroke-width:5;stroke-linecap:round;stroke-linejoin:round;stroke:rgb(0%,0%,0%);stroke-opacity:1;stroke-miterlimit:10;" d="M 614.284987 254.93833 L 242.537673 1104.506427 L 235.636035 1035.646904 Z M 614.284987 254.93833 " transform="matrix(0.099614,0,0,-0.099614,0,199.434498)"/>
<path style=" stroke:none;fill-rule:nonzero;fill:rgb(41.893005%,16.40625%,41.893005%);fill-opacity:1;" d="M 61.191406 174.039062 L 23.472656 96.269531 L 53.757812 100.761719 "/>
<path style="fill:none;stroke-width:5;stroke-linecap:round;stroke-linejoin:round;stroke:rgb(0%,0%,0%);stroke-opacity:1;stroke-miterlimit:10;" d="M 614.284987 254.93833 L 235.636035 1035.646904 L 539.661027 990.550974 Z M 614.284987 254.93833 " transform="matrix(0.099614,0,0,-0.099614,0,199.434498)"/>
<path style=" stroke:none;fill-rule:nonzero;fill:rgb(11.108398%,11.108398%,48.388672%);fill-opacity:1;" d="M 61.320312 4.867188 L 24.160156 89.410156 L 23.472656 96.269531 "/>
<path style="fill:none;stroke-width:5;stroke-linecap:round;stroke-linejoin:round;stroke:rgb(0%,0%,0%);stroke-opacity:1;stroke-miterlimit:10;" d="M 615.579044 1953.21182 L 242.537673 1104.506427 L 235.636035 1035.646904 Z M 615.579044 1953.21182 " transform="matrix(0.099614,0,0,-0.099614,0,199.434498)"/>
<path style=" stroke:none;fill-rule:nonzero;fill:rgb(96.679688%,93.554688%,67.96875%);fill-opacity:1;" d="M 61.320312 4.867188 L 102.433594 91.910156 L 90.800781 98.585938 "/>
<path style="fill:none;stroke-width:5;stroke-linecap:round;stroke-linejoin:round;stroke:rgb(0%,0%,0%);stroke-opacity:1;stroke-miterlimit:10;" d="M 615.579044 1953.21182 L 1028.304833 1079.409562 L 911.525983 1012.39309 Z M 615.579044 1953.21182 " transform="matrix(0.099614,0,0,-0.099614,0,199.434498)"/>
<path style=" stroke:none;fill-rule:nonzero;fill:rgb(77.539062%,68.943787%,76.756287%);fill-opacity:1;" d="M 61.320312 4.867188 L 53.757812 100.761719 L 90.800781 98.585938 "/>
<path style="fill:none;stroke-width:5;stroke-linecap:round;stroke-linejoin:round;stroke:rgb(0%,0%,0%);stroke-opacity:1;stroke-miterlimit:10;" d="M 615.579044 1953.21182 L 539.661027 990.550974 L 911.525983 1012.39309 Z M 615.579044 1953.21182 " transform="matrix(0.099614,0,0,-0.099614,0,199.434498)"/>
<path style=" stroke:none;fill-rule:nonzero;fill:rgb(49.291992%,47.288513%,76.367188%);fill-opacity:1;" d="M 61.320312 4.867188 L 23.472656 96.269531 L 53.757812 100.761719 "/>
<path style="fill:none;stroke-width:5;stroke-linecap:round;stroke-linejoin:round;stroke:rgb(0%,0%,0%);stroke-opacity:1;stroke-miterlimit:10;" d="M 615.579044 1953.21182 L 235.636035 1035.646904 L 539.661027 990.550974 Z M 615.579044 1953.21182 " transform="matrix(0.099614,0,0,-0.099614,0,199.434498)"/>
</g>
</svg>

<svg xmlns="http://www.w3.org/2000/svg" width="151.413" height="266.507" viewBox="0 0 113.56 199.88" version="1.2"><path style="stroke:none;fill-rule:nonzero;fill:#a36385;fill-opacity:1" d="m61.32 4.867 22.301 81.496-33.035-.996"/><path style="fill:none;stroke-width:5;stroke-linecap:round;stroke-linejoin:round;stroke:#000;stroke-opacity:1;stroke-miterlimit:10" d="m615.579 1953.212 223.872-818.119-331.632 10Zm0 0" transform="matrix(.09961 0 0 -.09961 0 199.434)"/><path style="stroke:none;fill-rule:nonzero;fill:#a996c2;fill-opacity:1" d="m61.191 174.04 22.43-87.677-33.035-.996"/><path style="fill:none;stroke-width:5;stroke-linecap:round;stroke-linejoin:round;stroke:#000;stroke-opacity:1;stroke-miterlimit:10" d="m614.285 254.938 225.166 880.155-331.632 10Zm0 0" transform="matrix(.09961 0 0 -.09961 0 199.434)"/><path style="stroke:none;fill-rule:nonzero;fill:#dd8d74;fill-opacity:1" d="m61.32 4.867-10.734 80.5L24.16 89.41"/><path style="fill:none;stroke-width:5;stroke-linecap:round;stroke-linejoin:round;stroke:#000;stroke-opacity:1;stroke-miterlimit:10" d="m615.579 1953.212-107.76-808.12-265.281-40.586Zm0 0" transform="matrix(.09961 0 0 -.09961 0 199.434)"/><path style="stroke:none;fill-rule:nonzero;fill:#ddc5c1;fill-opacity:1" d="M61.191 174.04 50.586 85.366 24.16 89.41"/><path style="fill:none;stroke-width:5;stroke-linecap:round;stroke-linejoin:round;stroke:#000;stroke-opacity:1;stroke-miterlimit:10" d="m614.285 254.938-106.466 890.155-265.281-40.587Zm0 0" transform="matrix(.09961 0 0 -.09961 0 199.434)"/><path style="stroke:none;fill-rule:nonzero;fill:#300758;fill-opacity:1" d="m61.32 4.867 41.114 87.043-18.813-5.547"/><path style="fill:none;stroke-width:5;stroke-linecap:round;stroke-linejoin:round;stroke:#000;stroke-opacity:1;stroke-miterlimit:10" d="m615.579 1953.212 412.726-873.802-188.854 55.683Zm0 0" transform="matrix(.09961 0 0 -.09961 0 199.434)"/><path style="stroke:none;fill-rule:nonzero;fill:#4b57bd;fill-opacity:1" d="m61.191 174.04 41.243-82.13-18.813-5.547"/><path style="fill:none;stroke-width:5;stroke-linecap:round;stroke-linejoin:round;stroke:#000;stroke-opacity:1;stroke-miterlimit:10" d="m614.285 254.938 414.02 824.472-188.854 55.683Zm0 0" transform="matrix(.09961 0 0 -.09961 0 199.434)"/><path style="stroke:none;fill-rule:nonzero;fill:#e17a0a;fill-opacity:1" d="m61.191 174.04 41.243-82.13L90.8 98.586"/><path style="fill:none;stroke-width:5;stroke-linecap:round;stroke-linejoin:round;stroke:#000;stroke-opacity:1;stroke-miterlimit:10" d="m614.285 254.938 414.02 824.472-116.779-67.017Zm0 0" transform="matrix(.09961 0 0 -.09961 0 199.434)"/><path style="stroke:none;fill-rule:nonzero;fill:#c27679;fill-opacity:1" d="m61.191 174.04-7.433-73.278L90.8 98.586"/><path style="fill:none;stroke-width:5;stroke-linecap:round;stroke-linejoin:round;stroke:#000;stroke-opacity:1;stroke-miterlimit:10" d="m614.285 254.938-74.624 735.613 371.865 21.842Zm0 0" transform="matrix(.09961 0 0 -.09961 0 199.434)"/><path style="stroke:none;fill-rule:nonzero;fill:#cce072;fill-opacity:1" d="m61.191 174.04-37.03-84.63-.688 6.86"/><path style="fill:none;stroke-width:5;stroke-linecap:round;stroke-linejoin:round;stroke:#000;stroke-opacity:1;stroke-miterlimit:10" d="m614.285 254.938-371.747 849.568-6.902-68.86Zm0 0" transform="matrix(.09961 0 0 -.09961 0 199.434)"/><path style="stroke:none;fill-rule:nonzero;fill:#6b2a6b;fill-opacity:1" d="M61.191 174.04 23.473 96.27l30.285 4.492"/><path style="fill:none;stroke-width:5;stroke-linecap:round;stroke-linejoin:round;stroke:#000;stroke-opacity:1;stroke-miterlimit:10" d="m614.285 254.938-378.649 780.709 304.025-45.096Zm0 0" transform="matrix(.09961 0 0 -.09961 0 199.434)"/><path style="stroke:none;fill-rule:nonzero;fill:#1c1c7b;fill-opacity:1" d="M61.32 4.867 24.16 89.41l-.687 6.86"/><path style="fill:none;stroke-width:5;stroke-linecap:round;stroke-linejoin:round;stroke:#000;stroke-opacity:1;stroke-miterlimit:10" d="m615.579 1953.212-373.041-848.706-6.902-68.86Zm0 0" transform="matrix(.09961 0 0 -.09961 0 199.434)"/><path style="stroke:none;fill-rule:nonzero;fill:#f7efad;fill-opacity:1" d="m61.32 4.867 41.114 87.043L90.8 98.586"/><path style="fill:none;stroke-width:5;stroke-linecap:round;stroke-linejoin:round;stroke:#000;stroke-opacity:1;stroke-miterlimit:10" d="m615.579 1953.212 412.726-873.802-116.779-67.017Zm0 0" transform="matrix(.09961 0 0 -.09961 0 199.434)"/><path style="stroke:none;fill-rule:nonzero;fill:#c6b0c4;fill-opacity:1" d="m61.32 4.867-7.562 95.895L90.8 98.586"/><path style="fill:none;stroke-width:5;stroke-linecap:round;stroke-linejoin:round;stroke:#000;stroke-opacity:1;stroke-miterlimit:10" d="M615.579 1953.212 539.661 990.55l371.865 21.842Zm0 0" transform="matrix(.09961 0 0 -.09961 0 199.434)"/><path style="stroke:none;fill-rule:nonzero;fill:#7e79c3;fill-opacity:1" d="M61.32 4.867 23.473 96.27l30.285 4.492"/><path style="fill:none;stroke-width:5;stroke-linecap:round;stroke-linejoin:round;stroke:#000;stroke-opacity:1;stroke-miterlimit:10" d="m615.579 1953.212-379.943-917.565 304.025-45.096Zm0 0" transform="matrix(.09961 0 0 -.09961 0 199.434)"/></svg>
